icons-rebrand/svg/webex-teams-regular.svg

<svg xmlns="http://www.w3.org/2000/svg" width="32" height="32" viewBox="0 0 32 32"><path d="M29.7638 18.8169C29.7278 17.9122 29.4236 17.0386 28.89 16.3072C28.3563 15.5757 27.6173 15.0194 26.7668 14.7089C27.1478 14.2756 27.3957 13.7416 27.4809 13.171C27.5661 12.6003 27.485 12.0172 27.2472 11.4916C27.0094 10.9659 26.6251 10.5199 26.1403 10.2071C25.6555 9.89432 25.0908 9.72795 24.5138 9.72795C23.9369 9.72795 23.3722 9.89432 22.8874 10.2071C22.4026 10.5199 22.0182 10.9659 21.7805 11.4916C21.5427 12.0172 21.4615 12.6003 21.5467 13.171C21.6319 13.7416 21.8799 14.2756 22.2608 14.7089C21.7545 14.922 21.2837 15.2113 20.8648 15.5669C20.2598 15.2085 19.6156 14.921 18.9448 14.7099C19.7227 14.1002 20.2911 13.2631 20.5707 12.3151C20.8504 11.3672 20.8274 10.3556 20.5049 9.42138C20.1824 8.48713 19.5766 7.67674 18.7717 7.10311C17.9669 6.52948 17.0032 6.22119 16.0148 6.22119C15.0265 6.22119 14.0628 6.52948 13.2579 7.10311C12.4531 7.67674 11.8473 8.48713 11.5248 9.42138C11.2023 10.3556 11.1793 11.3672 11.4589 12.3151C11.7386 13.2631 12.3069 14.1002 13.0848 14.7099C12.4067 14.9231 11.7557 15.2143 11.1448 15.5779C10.7236 15.2183 10.2493 14.9258 9.73884 14.7109C10.1198 14.2776 10.3677 13.7436 10.4529 13.173C10.5381 12.6023 10.457 12.0192 10.2192 11.4936C9.98144 10.9679 9.59712 10.5219 9.11232 10.2091C8.62751 9.89632 8.0628 9.72995 7.48584 9.72995C6.90888 9.72995 6.34417 9.89632 5.85936 10.2091C5.37456 10.5219 4.99024 10.9679 4.75246 11.4936C4.51468 12.0192 4.43353 12.6023 4.51873 13.173C4.60393 13.7436 4.85187 14.2776 5.23284 14.7109C4.38204 15.0215 3.64283 15.5781 3.10918 16.31C2.57552 17.0418 2.27153 17.9158 2.23584 18.8209C2.23584 19.4129 2.57084 20.2239 4.16784 20.7229C5.19784 21.0119 6.26184 21.1549 7.33184 21.1479C7.2892 21.4537 7.26682 21.762 7.26484 22.0709C7.26484 22.9509 7.78784 24.1699 10.2828 24.9809C12.1438 25.5239 14.0768 25.7829 16.0148 25.7499C20.0518 25.7499 24.7648 24.7869 24.7648 22.0709C24.763 21.7614 24.7406 21.4524 24.6978 21.1459C27.1818 21.1159 29.7638 20.4949 29.7638 18.8169ZM24.5138 11.2489C24.7108 11.2489 24.9059 11.2877 25.0879 11.363C25.2699 11.4384 25.4352 11.5489 25.5745 11.6882C25.7138 11.8275 25.8243 11.9928 25.8997 12.1748C25.975 12.3568 26.0138 12.5519 26.0138 12.7489C26.0138 12.9458 25.975 13.1409 25.8997 13.3229C25.8243 13.5049 25.7138 13.6702 25.5745 13.8095C25.4352 13.9488 25.2699 14.0593 25.0879 14.1347C24.9059 14.2101 24.7108 14.2489 24.5138 14.2489C24.116 14.2489 23.7345 14.0908 23.4532 13.8095C23.1719 13.5282 23.0138 13.1467 23.0138 12.7489C23.0138 12.351 23.1719 11.9695 23.4532 11.6882C23.7345 11.4069 24.116 11.2489 24.5138 11.2489ZM12.7638 10.9999C12.7638 10.1379 13.1062 9.31125 13.7157 8.70176C14.3252 8.09226 15.1519 7.74985 16.0138 7.74985C16.8758 7.74985 17.7024 8.09226 18.3119 8.70176C18.9214 9.31125 19.2638 10.1379 19.2638 10.9999C19.2638 11.8618 18.9214 12.6885 18.3119 13.298C17.7024 13.9074 16.8758 14.2499 16.0138 14.2499C15.1519 14.2499 14.3252 13.9074 13.7157 13.298C13.1062 12.6885 12.7638 11.8618 12.7638 10.9999ZM7.48584 11.2519C7.88366 11.2519 8.2652 11.4099 8.5465 11.6912C8.8278 11.9725 8.98584 12.354 8.98584 12.7519C8.98584 13.1497 8.8278 13.5312 8.5465 13.8125C8.2652 14.0938 7.88366 14.2519 7.48584 14.2519C7.08802 14.2519 6.70648 14.0938 6.42518 13.8125C6.14387 13.5312 5.98584 13.1497 5.98584 12.7519C5.98584 12.354 6.14387 11.9725 6.42518 11.6912C6.70648 11.4099 7.08802 11.2519 7.48584 11.2519ZM7.70084 19.6459C7.62684 19.6469 7.56184 19.6519 7.48584 19.6519C5.02984 19.6519 3.82284 19.0589 3.73584 18.8199C3.73584 17.1279 5.41784 15.7519 7.48584 15.7519C8.34554 15.747 9.18627 16.0044 9.89584 16.4899C8.91099 17.341 8.15615 18.4264 7.70084 19.6459ZM16.0148 24.2499C11.6778 24.2499 8.76484 23.1239 8.76484 22.0709C8.76484 18.5859 12.0168 15.7499 16.0148 15.7499C20.0118 15.7499 23.2648 18.5859 23.2648 22.0709C23.2648 23.1239 20.3518 24.2499 16.0148 24.2499ZM24.5148 19.6479C24.4478 19.6479 24.3918 19.6439 24.3278 19.6429C23.8696 18.4182 23.1094 17.3292 22.1178 16.4769C22.8247 15.9979 23.66 15.7441 24.5138 15.7489C26.5798 15.7489 28.2618 17.1229 28.2638 18.8119C28.1638 19.0619 26.9568 19.6479 24.5138 19.6479H24.5148Z"/></svg>

<svg data-name="Layer 1" xmlns="http://www.w3.org/2000/svg" viewBox="0 0 32 32"><path d="M29.764 18.817a4.563 4.563 0 0 0-3-4.108 3 3 0 1 0-4.506 0 5.378 5.378 0 0 0-1.4.858 9.128 9.128 0 0 0-1.921-.856 4.752 4.752 0 1 0-5.858 0 9.139 9.139 0 0 0-1.942.868 5.4 5.4 0 0 0-1.4-.867 3 3 0 1 0-4.506 0 4.565 4.565 0 0 0-3 4.109c0 .593.335 1.4 1.932 1.9a11.43 11.43 0 0 0 3.164.425 6.952 6.952 0 0 0-.067.923c0 .88.523 2.1 3.018 2.911a19.326 19.326 0 0 0 5.732.768c4.037 0 8.75-.963 8.75-3.679a6.982 6.982 0 0 0-.067-.925c2.489-.027 5.071-.644 5.071-2.327Zm-6.31-7.128a1.5 1.5 0 1 1-.44 1.06 1.506 1.506 0 0 1 .44-1.06ZM12.765 11a3.254 3.254 0 1 1 .953 2.3 3.252 3.252 0 0 1-.953-2.3Zm-6.34.692a1.5 1.5 0 1 1-.439 1.06 1.5 1.5 0 0 1 .439-1.06ZM7.7 19.646c-.074 0-.139.006-.215.006-2.456 0-3.663-.593-3.75-.832 0-1.692 1.682-3.068 3.75-3.068a4.219 4.219 0 0 1 2.41.738A7.749 7.749 0 0 0 7.7 19.646Zm8.314 4.6c-4.337 0-7.25-1.126-7.25-2.179 0-3.485 3.252-6.321 7.25-6.321s7.25 2.836 7.25 6.321c.001 1.057-2.912 2.183-7.249 2.183Zm8.5-4.6h-.186a7.767 7.767 0 0 0-2.21-3.166 4.227 4.227 0 0 1 2.4-.728c2.066 0 3.747 1.374 3.75 3.064-.104.246-1.311.832-3.754.832Z" style="fill:#0f0f0f"/></svg>
